assets/img/braze_icons/corner-right-up.svg

<svg fill="none" height="24" viewBox="0 0 24 24" width="24" xmlns="http://www.w3.org/2000/svg"><path d="m16.7071 3.29289c-.3905-.39052-1.0237-.39052-1.4142 0l-5 5c-.39053.39053-.39053 1.02369 0 1.41422.3905.39049 1.0237.39049 1.4142 0l3.2929-3.2929v3.98579c0 1.6967-.0008 2.909-.0784 3.8594-.0767.9386-.2234 1.5333-.4666 2.0106-.4793.9408-1.2442 1.7057-2.185 2.185-.4773.2432-1.072.3899-2.0106.4666-.95039.0776-2.16274.0784-3.8594.0784h-3.4c-.55228 0-1 .4477-1 1s.44772 1 1 1h3.44449c1.64251 0 2.93643 0 3.97771-.0851 1.0624-.0868 1.9495-.2671 2.7557-.6779 1.3172-.6711 2.388-1.7419 3.0591-3.0591.4108-.8062.5911-1.6933.6779-2.7557.0851-1.0413.0851-2.3352.0851-3.9778v-4.03019l3.2929 3.2929c.3905.39049 1.0237.39049 1.4142 0 .3905-.39053.3905-1.02369 0-1.41422z" fill="#801ed7"/></svg>

<svg width="24" height="24" viewBox="0 0 24 24" fill="none" xmlns="http://www.w3.org/2000/svg">
<path d="M16.7071 3.29289C16.3166 2.90237 15.6834 2.90237 15.2929 3.29289L10.2929 8.29289C9.90237 8.68342 9.90237 9.31658 10.2929 9.70711C10.6834 10.0976 11.3166 10.0976 11.7071 9.70711L15 6.41421L15 10.4C15 12.0967 14.9992 13.309 14.9216 14.2594C14.8449 15.198 14.6982 15.7927 14.455 16.27C13.9757 17.2108 13.2108 17.9757 12.27 18.455C11.7927 18.6982 11.198 18.8449 10.2594 18.9216C9.30901 18.9992 8.09666 19 6.4 19H3C2.44772 19 2 19.4477 2 20C2 20.5523 2.44772 21 3 21H6.44449C8.087 21 9.38092 21 10.4222 20.9149C11.4846 20.8281 12.3717 20.6478 13.1779 20.237C14.4951 19.5659 15.5659 18.4951 16.237 17.1779C16.6478 16.3717 16.8281 15.4846 16.9149 14.4222C17 13.3809 17 12.087 17 10.4444L17 6.41421L20.2929 9.70711C20.6834 10.0976 21.3166 10.0976 21.7071 9.70711C22.0976 9.31658 22.0976 8.68342 21.7071 8.29289L16.7071 3.29289Z" fill="#801ED7"/>
</svg>
